X:1
T:Ductus est Jesus
T:Guerrero edit BMarble
T:Ductus est Jesus
T:Copyright © 2016 by CPDL.  This edition can be fully distributed, duplicated, performed, and recorded. 
T:Copyright © 2016 by CPDL.  This edition can be fully distributed, duplicated, performed, and recorded. 
T:Copyright © 2016 by CPDL.  This edition can be fully distributed, duplicated, performed, and recorded. 
T:Copyright © 2016 by CPDL.  This edition can be fully distributed, duplicated, performed, and recorded. 
T:Copyright © 2016 by CPDL.  This edition can be fully distributed, duplicated, performed, and recorded. 
T:Copyright © 2016 by CPDL.  This edition can be fully distributed, duplicated, performed, and recorded. 
T:Copyright © 2016 by CPDL.  This edition can be fully distributed, duplicated, performed, and recorded. 
C:Guerrero
C:edit BMarble
Z:Copyright © 2016 by CPDL.  This edition can be fully distributed, duplicated, performed, and recorded.
Z:
%%score [ 1 2 3 4 ]
L:1/8
Q:1/2=84
M:4/2
K:Bb
V:1 treble nm="Soprano" snm="S."
V:2 treble nm="Alto" snm="A."
V:3 treble-8 transpose=-12 nm="Tenor" snm="T."
V:4 bass nm="Bass" snm="B."
V:1
"^Matthew 4: Jesus was led by the Spirit into the desert to be tempted by the devil.He fasted for forty days and forty nights, and afterwards he was hungry. The tempter approached and said to him, “If you are the Son of God, command that these stones become loaves of bread.” He said in reply, “It is written: ‘One does not live by bread alone,but by every word that comes forth from the mouth of God.\"" z16 | %1
w: |
 z8 B8- | B4 B4 G8 | F8 B8 | A4 F4 A6 B2 | c2 d2 c6 B2 B4- | B4 A4 B8 | z16 | z16 | z4 c8 B4- | %10
w: Du-|* ctus est|Je- sus|a Spi- * *||* ri- tu|||ut ten-|
 B4 A4 B4 G4 | A6 G2 A4 B4 | c8 d4 B4 | (c4 B2 A2 G4 A4 | B4) G4 A8 | z16 | z8 B8- | B4 B4 e4 c4 | %18
w: * ta- re- tur|a di- a- bo-|lo, a di-|a- * * * *|* bo- lo.||Et|_ cum je- ju-|
 d8 c8 | z4 c8 =B4 | c4 F4 (A8 | G6 A2 _B8) | c8 z4 B4- | B4 A4 G4 B4- | B4 A4 G4 F2 E2 | %25
w: nas- set,|et cum|je- ju- nas-||set qua-|* dra- gin- ta|_ di- e- * *|
 F2 G2 =A2 F2 G4 F2 E2 | D4 d8 c4 | B4 d6 c2 B4- | (B4 A4) G8 | z4 F4 G4 G4 | B12 A4 | %31
w: |bus, qua- dra-|gin- ta di- e-|* * bus,|et qua- dra-|gin- ta|
 B4 G4 F4 d4 | d4 c4 B2 c2 d2 e2 | d4 c2 B2 A4 B4- | B2 A2 A2 GF G4 G4 | A16 | z16 | z16 | z8 f8- | %39
w: no- cti- bus, et|qua- dra- gin- * * *|* * * ta no-|* * * * * * cti-|bus|||po-|
 f4 d4 d8 | B4 e8 c4 | d4 (f6 e2 d2 c2 | d4) B8 A4 | B16 | z16 | z4 F4 A4 A4 | A4 B4 c8 | %47
w: * ste- a|e- su- ri-|it, e- * * *|* su- ri-|it.||Et ac- ce-|dens ten- ta-|
 d8 z4 B4- | B4 B4 B8 | A16 || A8 B8 | B4 B4 A4 G4 | A8 d8 | B4 c6 c2 =A4 | B8 G4 A4- | A4 F4 G8 | %56
w: tor di-|* xit e-|i:|Si Fi-|li- us De- i|es, dic|ut la- pi- des|i- sti pa-|* nes fi-|
 F4 f8 d4 | e6 e2 c4 d4- | d4 B4 c8 | =A4 B4 G2 A2 B2 c2 | d4 c8 =B4 | c16 | z4 c8 c4 | c4 c4 c8 | %64
w: ant, dic ut|la- pi- des i-|* sti pa-|nes fi- * * * *||ant.|Qui re-|spon- dens di-|
 d8 z8 | z8 B8- | B4 B4 G8- | G8 c8- | c8 c8 | d16 | z16 | z4 B8 B4 | B4 B4 A8 | G8 B8- | %74
w: xit:|Scri-|* ptum est,|_ scri-|* ptum|est:||non in|so- lo pa-|ne vi-|
 B4 c4 d8 | G16 | z8 (d8 | e8) c4 c4- | c4 (B8 A2 G2 | A8) z8 | z8 z4 G4- | G4 F4 G4 A4 | B8 A8 | %83
w: * vit ho-|mo,|vi-|* vit ho-|* mo, _ _|_|sed|_ in o- mni|ver- bo|
 c8 G4 B4- | B2 A2 F4 A8 | G8 z4 c4 | d4 B4 e8 | d8 z4 c4 | d8 B4 e2 d2 | c2 B2 c4 B6 G2 | c8 B8 | %91
w: quod pro- ce-||dit de|o- re De-|i, de|o- re De- *||* i,|
 z4 G4 A4 F4 | B6 G2 A2 B2 c4- | c2 B2 B8 A4 | B16- | B16 |] %96
w: de o- re|De- * * * *||i.|_|
V:2
 z16 | z16 | z16 | z16 | z16 | z8 F8- | F4 F4 D8 | C8 F8 | E4 C4 D4 =E4 | %9
w: |||||Du-|* ctus est|Je- sus|a Spi- ri- tu|
 F4 (E2 F2 G2 !courtesy!_A2 G4-) | G4 (F8 =E4) | F16 | z4 F8 _E4- | E4 D4 E4 C4 | D4 E4 (F6 E2 | %15
w: in de- * * * *|* ser- *|tum,|ut ten-|* ta- re- tur|a di- a- *|
 F4) (G6 E2 F4) | G4 E4 F4 (G4 | E4) F4 E8 | z4 F8 F4 | C4 E4 D8 | C8 z4 F4 | E4 G8 F4 | G8 G8 | %23
w: * bo- * *|lo, a di- a-|* bo- lo.|Et cum|je- ju- nas-|set, et|cum je- ju-|nas- set|
 z4 F8 E4 | D4 C4 E4 D2 C2 | D2 E2 F4 B,2 C2 D2 E2 | F4 B,4 F6 F2 | G4 F4 D4 =E4 | F4 F,4 G,4 A,4 | %29
w: qua- dra-|gin- ta di- e- *||* bus, qua- dra-|gin- ta di- e-|bus et qua- dra-|
 B,8 E,4 E4 | D2 C2 D2 B,2 C4 C4 | B,4 (E4 D6) E2 | F8 z4 B4- | B4 A4 F4 G4- | G2 F2 F8 =E4 | %35
w: gin- ta no-|* * * * * cti-|bus, no- * cti-|bus, et|_ qua- dra- gin-|* ta no- cti-|
 F8 z4 F4- | F4 D8 D4 | B,4 E8 C4 | D8 z8 | F8 F4 D4 | G4 G8 E4 | F4 D4 F8- | (F4 E2 D2 C4) C4 | %43
w: bus po-|* ste- a|e- su- ri-|it,|po- ste- a|e- su- ri-|it, e- su-|* * * * ri-|
 B,8 z4 B,4 | D4 D4 D4 =E4 | F12 C4 | F4 G4 E8 | D4 F8 F4 | F4 G6 D2 =E4 | F16 || F8 F8 | %51
w: it. Et|ac- ce- dens ten-|ta- tor|di- xit e-|i, di- xit|e- * * *|i:|Si Fi-|
 G4 G4 F4 =E4 | F8 z8 | z8 F8 | D4 E6 E2 C4 | D6 D2 B,4 C4 | D2 E2 F2 G2 A2 F2 B4- | %57
w: li- us De- i|es,|dic|ut la- pi- des|i- sti pa- nes|fi- * * * * * *|
 B4 A2 G2 A2 G2 F2 E2 | F4 G4 C6 C2 | D4 B,4 B8 | (A8 G8-) | G4 (F8 =E4) | F4 A8 G4 | A4 G4 A8 | %64
w: |* ant, pa- nes|fi- ant, pa-|nes _|_ fi- *|ant. Qui re-|spon- dens di-|
 B4 F8 F4 | F4 F4 F8 | G8 z8 | E12 E4 | C4 F8 F4 | F8 z4 F4- | F4 F4 F4 F4 | E4 D8 F4- | F4 E8 D4 | %73
w: xit, qui re-|spon- dens di-|xit:|Scri- ptum|est, scri- ptum|est: non|_ in so- lo|pa- ne vi-|* vit ho-|
 (E6 F2 G8-) | G8 z8 | E12 E4 | E4 E4 D8 | C4 E8 F4 | G8 C8 | z4 C8 B,4 | C4 D4 E8 | D4 D8 C4 | %82
w: mo, _ _|_|non in|so- lo pa-|ne vi- vit|ho- mo,|sed in|o- mni ver-|bo quod pro-|
 B,2 A,2 B,2 C2 D4 C2 B,2 | A,4 G,6 F,2 G,2 A,2 | B,8 F,4 F4 | D4 E4 D4 C4- | C2 B,2 B,8 A,4 | %87
w: ce- * * * * * *||* dit, de|o- re De- *||
 B,2 C2 D2 B,2 C4 A,4 | B,4 F4 G4 E4 | _A8 G8 | E4 F4 G8- | G8 z4 F4 | D4 =E4 F8 | F8 z4 C4 | %94
w: |i, de o- re|De- *|* * i,|_ de|o- re De-|i, de|
 D4 B,4 E8 | D16 |] %96
w: o- re De-|i.|
V:3
 B12 B4 | d8 e8 | B8 c4 e4- | (e4 d2 c2 d4) e4 | f8 z4 f4- | f4 e4 (d8 | c8) B8 | F4 f6 e2 d4- | %8
w: Du- ctus|est Je-|sus a Spi-|* * * * ri-|tu in|_ de- se-|* tum,|in de- * *|
 d2 c2 (c8 B4) | c8 e6 d2 | (e4 c4) B8 | z4 c8 B4- | B4 A4 B4 G4 | A4 B4 c4 A4 | (G8 F8) | %15
w: * * ser- *|tum, in de-|ser- * tum|ut ten-|* ta- re- tur|a di- a- bo-|lo, _|
 c8 B6 B2 | B4 c4 B2 A2 G2 F2 | G2 F2 B8 A4 | B8 F6 G2 | A2 B2 c4 F4 G4 | A2 G2 A2 B2 c8 | %21
w: ut ten- ta-|re- tur _ _ _ _|_ _ _ di-|a- bo- *|* * * lo. _|_ _ _ _ _|
 z4 B8 B4 | e4 c4 (d8 | c8) B8 | z8 z4 B4- | B4 A4 G4 B4- | B2 A2 G4 F8 | z8 B8 | c4 c4 e8- | %29
w: Et cum|je- ju- nas-|* set|qua-|* dra- gin- ta|_ di- e- bus|et|qua- dra- gin-|
 e4 d4 e4 c4 | (B8 F8) | z16 | z4 c4 d4 d4 | f12 e4 | f4 d4 c8 | z4 c8 A4 | A4 F8 B4- | %37
w: * ta no- cti-|bus, _||et qua- dra-|gin- ta|no- cti- bus|po- ste-|a e- su-|
 (B2 A2 G2 F2 G4) A4 | B4 f8 d4 | d8 B8 | (e6 d2 c4) c4 | B8 z8 | z16 | z4 E4 G4 G4 | G4 A4 B8 | %45
w: * * * * * ri-|it, po- ste-|a e-|su- * * ri-|it||et ac- ce-|dens ten- ta-|
 c4 d4 c4 A2 B2 | c2 F2 B8 A4 | B8 d8- | d4 e4 (d4 c2 B2) | c16 || c8 d8 | d4 e4 c4 B4 | c4 f8 d4 | %53
w: tor di- xit e- *||i, di-|* xit e- * *|i:|Si Fi-|li- us De- i|es, dic ut|
 e6 e2 c4 d4- | d4 B4 c8 | A4 B4 G2 F2 G2 A2 | B2 c2 d8 B4 | c8 f8 | d4 e6 e2 e4 | f4 d8 g4 | %60
w: la- pi- des i-|* sti pa-|nes fi- * * * *||ant, dic|ut la- pi- des|i- sti pa-|
 f6 e2 d2 c2 d4 | c4 A4 G8 | F4 f8 =e4 | f4 c4 f8 | B8 d4 c4 | d4 c4 d8 | e4 e8 B4 | B4 c6 B2 G4 | %68
w: nes _ _ _ _|_ _ fi-|ant. Qui re-|spon- dens di-|xit, qui re-|spon- dens di-|xit: Scri- ptum|est, scri- * *|
 A4 B8 A4 | B4 d8 d4 | d4 d4 c8- | c4 B4 d8- | d4 B4 c4 A4 | c4 B2 A2 G4 e4- | e2 d2 (c8 =B4) | %75
w: * * ptum|est: non in|so- lo pa-|* ne vi-|* vit ho- *|* * * mo, vi-|* vit ho- *|
 c8 z4 c4 | G4 (c8 =B4) | c4 c8 c4 | d8 f8- | f8 z8 | z16 | B12 c4 | d4 e4 f8 | c4 e8 B4 | d8 c8 | %85
w: mo, vi-|vit ho- *|mo, vi- vit|ho- mo|_||sed in|o- mni ver-|bo quod pro-|ce- *|
 B12 A2 G2 | F4 G4 z4 c4 | d4 B4 e8 | d4 B4 e4 c4 | f6 e2 d2 B2 e4 | c4 z2 c2 d4 B4 | e8 d8 | %92
w: |* dit de|o- re De-|i, de o- re|De- * * * *|i, de o- re|De- i,|
 z4 B4 c4 A4 | d8 c4 F4 | F4 G4 G8 | F16 |] %96
w: de o- re|De- i, de|o- re De-|i.|
V:4
 z16 | z16 | z16 | z16 | F,12 F,4 | A,8 B,8 | F,8 G,4 B,4- | (B,4 A,2 G,2 A,4) B,4 | C4 A,4 G,8 | %9
w: ||||Du- ctus|est Je-|sus a Spi-|* * * * ri-|tu in de-|
 F,4 C,8 E,4- | E,4 F,4 (G,8 | F,12 B,,4) | F,8 z8 | z16 | z8 z4 F,4- | F,4 E,8 D,4 | %16
w: ser- tum, in|_ de- ser-||tum||ut|_ ten- ta-|
 E,4 C,4 D,4 E,4- | E,2 D,2 D,2 C,B,, C,4 C,4 | B,,8 z8 | z16 | z4 F,8 F,4 | C,4 E,4 D,8 | %22
w: re- tur a di-|* * a- * * * bo-|lo.||Et cum|je- ju- nas-|
 C,8 G,6 G,2 | E,4 F,4 G,8 | D,8 z8 | z16 | B,12 A,4 | G,4 (B,6 A,2 G,4) | (F,6 E,2 C,4) E,4 | %29
w: set, et cum|je- ju- nas-|set||qua- dra-|gin- ta _ _|di- * * e-|
 B,,8 z8 | z8 z4 F,4 | G,4 G,4 B,8- | B,4 A,4 B,4 G,4 | F,8 z8 | z16 | F,16 | D,8 B,,4 B,,4 | %37
w: bus|et|qua- dra- gin-|* ta no- cti-|bus||po-|ste- a e-|
 (E,6 D,2 C,4) C,4 | B,,16- | B,,16 | z16 | z4 B,,4 D,4 D,4 | D,4 E,4 F,8 | G,8 (B,6 A,2 | %44
w: su- * * ri-|it,|_||et ac- ce-|dens ten- ta-|tor di- *|
 B,4) F,4 G,8 | F,4 B,,4 F,4 F,4- | (F,4 E,2 D,2 C,8) | B,,8 B,8- | B,4 E,4 G,8 | F,16 || F,8 B,8 | %51
w: * xit e-|i, di- xit e-||i, di-|* xit e-|i:|Si Fi-|
 G,4 E,4 F,4 G,4 | F,8 B,8 | G,4 _A,6 A,2 F,4 | G,8 E,4 F,4- | F,4 D,4 E,8 | B,,8 z8 | z8 z4 B,4- | %58
w: li- us De- i|es, dic|ut la- pi- des|i- sti pa-|* nes fi-|ant,|dic|
 B,4 G,4 _A,6 A,2 | F,4 G,8 E,4 | F,4 F,4 G,6 F,2 | E,4 F,4 C,8 | F,8 z8 | z16 | z4 B,8 A,4 | %65
w: _ ut la- pi-|des i- sti|pa- nes fi- *||ant:||qui re-|
 B,4 F,4 B,8 | E,8 E,8- | E,4 C,4 C,8 | F,12 F,4 | B,,4 B,8 B,4 | B,4 B,4 A,8 | G,8 B,6 A,2 | %72
w: spon- dens di-|xit: Scri-|* ptum est,|scri- ptum|est: non in|so- lo pa-|ne vi- vit|
 G,8 F,8 | z4 E,8 E,4 | E,4 E,4 D,8 | C,16 | E,8 F,4 G,4 | C,8 _A,6 A,2 | G,8 F,8 | z4 F,8 G,4 | %80
w: ho- mo,|non in|so- lo pa-|ne|vi- vit ho-|mo, vi- vit|ho- mo,|sed in|
 A,4 B,4 C8 | G,4 B,8 A,4 | G,6 F,2 D,4 F,4- | F,2 E,2 C,4 E,8 | B,,8 z4 F,4 | G,4 E,4 F,6 E,2 | %86
w: o- mni ver-|bo quod pro-|ce- * * *||dit de|o- re De- *|
 D,4 E,4 C,8 | B,,8 z8 | z16 | z4 F,4 G,4 E,4 | _A,8 G,8 | z4 E,4 F,4 D,4 | G,8 F,8 | z4 B,,4 F,8 | %94
w: |i,||de o- re|De- i,|de o- re|De- i,|de o-|
 D,4 (E,6 D,2 E,4) | B,,16 |] %96
w: re De- * *|i.|

